public/img/mmu/mmu_ERCF.svg

<svg xmlns="http://www.w3.org/2000/svg" viewBox="-50 -270 1440 1440"><g style="stroke:none;stroke-width:30"><path d="M-7 1112a24 24 0 1 0 39.5 27L205 996.8a24 24 0 0 0 3.8-33A262.3 262.3 0 0 0 84 874a24 24 0 0 0-30.9 16.5zM237.5 938A300.7 300.7 0 0 0 91.7 836.1 24 24 0 0 1 75.8 807l80.8-185.5 1.5-.7a24 24 0 0 1 37.4-17.3l.9-.4A555.3 555.3 0 0 1 413 751.3a54.8 54.8 0 0 1 1.6 71.3l-7.5 7.6a54.8 54.8 0 0 1-9.9 6.5l-.6 2.1-124.9 103a24 24 0 0 1-34.2-3.8M510.8 725.3l-.1 1L499 738a24 24 0 0 1-35.4-1.6 603.3 603.3 0 0 0-228.7-169.6 24 24 0 0 1-12.2-32.7l68.1-138.6a104.4 104.4 0 0 1 152.4-40.3 1399 1399 0 0 1 179.2 144.9 72.3 72.3 0 0 1 3.1 101.5zM1024.2 363.5A156.1 156.1 0 0 0 897.1 383l-146.8 95.6a61.9 61.9 0 0 1-79.2-93.9 622.3 622.3 0 0 1 545.1-193.1 83.9 83.9 0 0 1 18.8 161.1 332.1 332.1 0 0 1-210.8 10.8M553.3 294.7a931.6 931.6 0 0 0 157.8-421.4 112.4 112.4 0 0 1 15.5-45.4 50.3 50.3 0 0 1 51.2-55.2l47.3 1a112.4 112.4 0 0 1 92.3 173L652.7 360.6a59.6 59.6 0 0 1-99.4-65.9M381.4 228.8A5088 5088 0 0 0 404.3-3h-.2a172.3 172.3 0 0 0-126.3-169.7 131.5 131.5 0 0 1 257.3 41 4062 4062 0 0 1-25.3 375.6 64.7 64.7 0 0 1-128.4-15.1"/></g></svg>

<?xml version="1.0" encoding="UTF-8" standalone="no"?>
<svg
   viewBox="-50 -270 1440 1440"
   height="100%"
   preserveAspectRatio="xMidYMid meet"
   version="1.1"
   xmlns="http://www.w3.org/2000/svg"
   xmlns:svg="http://www.w3.org/2000/svg">
  <g style="stroke: none; stroke-width: 30;">
      <path d="M -7.0,1112.0 A 24.0,24.0 0 1 0 32.5,1139.0 L 205.0,996.8 A 24.0,24.0 0 0 0 208.8,963.8 A 262.3,262.3 0 0 0 84.0,874.0 A 24.0,24.0 0 0 0 53.1,890.5 L -7.0,1112.0 z" />
      <path d="M 237.5,938.0 A 300.7,300.7 0 0 0 91.7,836.1 A 24.0,24.0 0 0 1 75.8,807.0 L 156.6,621.5 A 931.6,931.6 0 0 0 158.1,620.8 A 24.0,24.0 0 0 1 195.5,603.5 A 931.6,931.6 0 0 0 196.4,603.1 A 555.3,555.3 0 0 1 413.0,751.3 A 54.8,54.8 0 0 1 414.6,822.6 L 407.1,830.2 A 54.8,54.8 0 0 1 397.2,836.7 A 4061.6,4061.6 0 0 1 396.6,838.8 L 271.7,941.8 A 24.0,24.0 0 0 1 237.5,938.0 z" />
      <path d="M 510.8,725.3 A 622.3,622.3 0 0 0 510.7,726.3 L 499.0,738.0 A 24.0,24.0 0 0 1 463.6,736.4 A 603.3,603.3 0 0 0 234.9,566.8 A 24.0,24.0 0 0 1 222.7,534.1 L 290.8,395.5 A 104.4,104.4 0 0 1 443.2,355.2 A 1399.1,1399.1 0 0 1 622.4,500.1 A 72.3,72.3 0 0 1 625.5,601.6 L 510.8,725.3 z" />
      <path d="M 1024.2,363.5 A 156.1,156.1 0 0 0 897.1,383.0 L 750.3,478.6 A 61.9,61.9 0 0 1 671.1,384.7 A 622.3,622.3 0 0 1 1216.2,191.6 A 83.9,83.9 0 0 1 1235.0,352.7 A 332.1,332.1 0 0 1 1024.2,363.5 z" />
      <path d="M 553.3,294.7 A 931.6,931.6 0 0 0 711.1,-126.7 A 112.4,112.4 0 0 1 726.6,-172.1 A 50.3,50.3 0 0 1 777.8,-227.3 L 825.1,-226.3 A 112.4,112.4 0 0 1 917.4,-53.3 L 652.7,360.6 A 59.6,59.6 0 0 1 553.3,294.7 z" />
      <path d="M 381.4,228.8 A 5087.8,5087.8 0 0 0 404.3,-3.0 A 131.5,131.5 0 0 1 404.1,-3.0 A 172.3,172.3 0 0 0 277.8,-172.7 A 131.5,131.5 0 0 1 535.1,-131.7 A 4061.6,4061.6 0 0 1 509.8,243.9 A 64.7,64.7 0 0 1 381.4,228.8 z" />
  </g>
</svg>
